icon-themes/sifr_svg/cmd/sc_dbtableopen.svg

<svg viewBox="0 0 16 16" xmlns="http://www.w3.org/2000/svg"><path d="m4 2v7h11v-7zm1 1h2v1h-2zm3 0h3v1h-3zm4 0h2v1h-2zm-11.46875 2c-.28913 0-.53125.24205-.53125.53125v9.9375c0 .2985.23264.53125.53125.53125h13.8125c.2986 0 .53125-.23265.53125-.53125l1.125-4.916016c0-.2891-.24212-.53125-.53125-.53125h-11.59375l-.875 3.478516c0 .277-.223.5-.5.5s-.5-.223-.5-.5v-4.9960938c0-.2769998.223-.5.5-.5h.4667969v-3.0039062zm4.46875 0h2v1h-2zm3 0h3v1h-3zm4 0h2v1h-2zm-7 2h2v1h-2zm3 0h3v1h-3zm4 0h2v1h-2z" fill="#555753"/></svg>

<svg xmlns="http://www.w3.org/2000/svg" viewBox="0 0 16 16">
  <path
     style="fill:#555753"
     d="M 4 2 L 4 9 L 15 9 L 15 2 L 4 2 z M 5 3 L 7 3 L 7 4 L 5 4 L 5 3 z M 8 3 L 11 3 L 11 4 L 8 4 L 8 3 z M 12 3 L 14 3 L 14 4 L 12 4 L 12 3 z M 0.53125 5 C 0.24212 5 0 5.24205 0 5.53125 L 0 15.46875 C 0 15.76725 0.23264 16 0.53125 16 L 14.34375 16 C 14.64235 16 14.875 15.76735 14.875 15.46875 L 16 10.552734 C 16 10.263634 15.75788 10.021484 15.46875 10.021484 L 3.875 10.021484 L 3 13.5 C 3 13.777 2.777 14 2.5 14 C 2.223 14 2 13.777 2 13.5 L 2 8.5039062 C 2 8.2269064 2.223 8.0039062 2.5 8.0039062 L 2.9667969 8.0039062 L 2.9667969 5 L 0.53125 5 z M 5 5 L 7 5 L 7 6 L 5 6 L 5 5 z M 8 5 L 11 5 L 11 6 L 8 6 L 8 5 z M 12 5 L 14 5 L 14 6 L 12 6 L 12 5 z M 5 7 L 7 7 L 7 8 L 5 8 L 5 7 z M 8 7 L 11 7 L 11 8 L 8 8 L 8 7 z M 12 7 L 14 7 L 14 8 L 12 8 L 12 7 z "
     />
</svg>
